src/styles/icons/competencies.svg

<svg width="24" height="24" viewBox="0 0 24 24" fill="none" xmlns="http://www.w3.org/2000/svg">
<mask id="mask0_2234_10966" style="mask-type:alpha" maskUnits="userSpaceOnUse" x="0" y="0" width="24" height="24">
<rect width="24" height="24" fill="#D9D9D9"/>
</mask>
<g mask="url(#mask0_2234_10966)">
<path d="M14.406 20.5C13.6802 20.5 13.0625 20.2459 12.553 19.7378C12.0433 19.2298 11.7885 18.6127 11.7885 17.8867C11.7885 17.1609 12.0426 16.5433 12.5507 16.0338C13.0588 15.5241 13.6757 15.2692 14.4015 15.2692C15.1273 15.2692 15.7451 15.5233 16.2548 16.0315C16.7644 16.5395 17.0193 17.1564 17.0193 17.8822C17.0193 18.6082 16.7652 19.226 16.257 19.7355C15.749 20.2452 15.132 20.5 14.406 20.5ZM14.4038 19C14.7128 19 14.9759 18.8913 15.1932 18.674C15.4106 18.4567 15.5193 18.1935 15.5193 17.8845C15.5193 17.5757 15.4106 17.3126 15.1932 17.0953C14.9759 16.8779 14.7128 16.7693 14.4038 16.7693C14.0948 16.7693 13.8317 16.8779 13.6145 17.0953C13.3972 17.3126 13.2885 17.5757 13.2885 17.8845C13.2885 18.1935 13.3972 18.4567 13.6145 18.674C13.8317 18.8913 14.0948 19 14.4038 19ZM16.5 13.5C15.1013 13.5 13.9183 13.0163 12.951 12.049C11.9837 11.0817 11.5 9.89867 11.5 8.5C11.5 7.10133 11.9837 5.91833 12.951 4.951C13.9183 3.98367 15.1013 3.5 16.5 3.5C17.8987 3.5 19.0817 3.98367 20.049 4.951C21.0163 5.91833 21.5 7.10133 21.5 8.5C21.5 9.89867 21.0163 11.0817 20.049 12.049C19.0817 13.0163 17.8987 13.5 16.5 13.5ZM16.5 12C17.4833 12 18.3125 11.6625 18.9875 10.9875C19.6625 10.3125 20 9.48333 20 8.5C20 7.51667 19.6625 6.6875 18.9875 6.0125C18.3125 5.3375 17.4833 5 16.5 5C15.5167 5 14.6875 5.3375 14.0125 6.0125C13.3375 6.6875 13 7.51667 13 8.5C13 9.48333 13.3375 10.3125 14.0125 10.9875C14.6875 11.6625 15.5167 12 16.5 12ZM7.1155 17.6152C6.12117 17.6152 5.27 17.2613 4.562 16.5533C3.854 15.8453 3.5 14.9942 3.5 14C3.5 13.0058 3.854 12.1547 4.562 11.4468C5.27 10.7387 6.12117 10.3848 7.1155 10.3848C8.10967 10.3848 8.96075 10.7387 9.66875 11.4468C10.3768 12.1547 10.7308 13.0058 10.7308 14C10.7308 14.9942 10.3768 15.8453 9.66875 16.5533C8.96075 17.2613 8.10967 17.6152 7.1155 17.6152ZM7.11575 16.1155C7.69758 16.1155 8.19558 15.9083 8.60975 15.494C9.02375 15.0797 9.23075 14.5816 9.23075 13.9998C9.23075 13.4179 9.02358 12.9199 8.60925 12.5058C8.19492 12.0916 7.69683 11.8845 7.115 11.8845C6.53317 11.8845 6.03525 12.0917 5.62125 12.506C5.20708 12.9203 5 13.4184 5 14.0003C5 14.5821 5.20717 15.0801 5.6215 15.4943C6.03583 15.9084 6.53392 16.1155 7.11575 16.1155Z" fill="CurrentColor"/>
</g>
</svg>

<svg fill="none" xmlns="http://www.w3.org/2000/svg" viewBox="0 0 24 24"><mask id="a" style="mask-type:alpha" maskUnits="userSpaceOnUse" x="0" y="0" width="24" height="24"><path fill="#D9D9D9" d="M0 0h24v24H0z"/></mask><g mask="url(#a)"><path opacity=".4" fill-rule="evenodd" clip-rule="evenodd" d="M12.32.924c2.5-.008 5.305-.345 7.205 1.28 1.872 1.6 1.609 4.466 2.285 6.833.645 2.255 2.2 4.419 1.578 6.68-.63 2.291-2.803 3.743-4.797 5.035-1.9 1.231-4.007 2.14-6.27 2.138-2.263-.003-4.517-.711-6.262-2.15-1.682-1.388-2.34-3.534-3.104-5.576-.804-2.147-1.823-4.293-1.439-6.554.419-2.467 1.592-4.91 3.631-6.362C7.178.803 9.827.931 12.32.924Z" fill="#DE93A0"/><path d="M14.406 20.5a2.527 2.527 0 0 1-1.853-.762 2.516 2.516 0 0 1-.764-1.851c0-.726.254-1.344.762-1.853a2.516 2.516 0 0 1 1.85-.765c.726 0 1.344.254 1.854.763.51.508.764 1.124.764 1.85s-.254 1.344-.762 1.853a2.516 2.516 0 0 1-1.851.765Zm-.002-1.5c.309 0 .572-.109.79-.326.217-.217.325-.48.325-.79 0-.308-.108-.571-.326-.789a1.075 1.075 0 0 0-.79-.326c-.308 0-.571.109-.789.326-.217.218-.325.48-.325.79 0 .308.108.572.325.789.218.217.48.326.79.326Zm2.096-5.5c-1.399 0-2.582-.484-3.549-1.451-.967-.967-1.451-2.15-1.451-3.549s.484-2.582 1.451-3.549c.967-.967 2.15-1.451 3.549-1.451s2.582.484 3.549 1.451c.967.967 1.451 2.15 1.451 3.549s-.484 2.582-1.451 3.549c-.967.967-2.15 1.451-3.549 1.451Zm0-1.5c.983 0 1.813-.338 2.488-1.012C19.663 10.313 20 9.483 20 8.5c0-.983-.337-1.813-1.012-2.487C18.313 5.338 17.483 5 16.5 5c-.983 0-1.813.338-2.488 1.013C13.337 6.688 13 7.517 13 8.5c0 .983.338 1.813 1.012 2.488.675.675 1.505 1.012 2.488 1.012Zm-9.384 5.615c-.995 0-1.846-.354-2.554-1.062C3.854 15.845 3.5 14.994 3.5 14s.354-1.845 1.062-2.553c.708-.708 1.56-1.062 2.553-1.062.995 0 1.846.354 2.554 1.062.708.708 1.062 1.559 1.062 2.553s-.354 1.845-1.062 2.553c-.708.708-1.56 1.062-2.554 1.062Zm0-1.5c.582 0 1.08-.207 1.494-.621.414-.414.62-.912.62-1.494s-.206-1.08-.62-1.494a2.038 2.038 0 0 0-1.495-.622c-.582 0-1.08.208-1.494.622A2.038 2.038 0 0 0 5 14c0 .582.207 1.08.622 1.494.414.414.912.622 1.494.622Z" fill="#1C1B1F"/></g></svg>
